X: 4
T: Dick Gossip's
Z: jdogbishop96
S: https://thesession.org/tunes/408#setting48131
R: reel
M: 4/4
L: 1/8
K: Dmaj
|:de|"D"f2 af gfed|f2 af gfed|"G"e3/2e1/2ef gfed|"A"e3/2d1/2ef gfed|
"D"f2 af gfed|f2 af gfed|"G"cdef gece|"A"d2 dc "D"d2:|
|:ef|"G"gB B2 "G"gB"G"aB|"G"gB B2 gfed|"A"(3cBA eA fAeA|(3cBA ef gfef|
"G"gB B2 "G"gB"G"aB|"G"gB B2 gfed|"A"cdef gece|d2 dc "D"d2 ef:|

